X: 25983
T: Mayday
R: hornpipe
M: 4/4
K: Dmajor
A2|d>ef>d c>Bc>A|d>AF>G A2 G>F|G>AB>c|d>e^d>e|f>ed>B c>AB>c|
d>ef>d c>Bc>A|d>AF>G A2 G>F|G>AB>c d>e^d>e|f>dc>A d2:|
A2|d>ef>d A>ce>c|A>=ce>c B2 B2|G>Bd>G F>Ad>A|^G>Bd>f e>AB>c|
d>ef>d A>ce>c|A>=ce>c B2B2|G>Bd>G F>Ad>e|f>dc>A d2:|

